X:1
T:Mnogaja leta
T:Mnogaja leta
T:Anonym (Moskva)
C:Anonym (Moskva)
%%score [ 1 2 3 4 ]
L:1/8
Q:1/4=80
M:3/4
K:Bb
V:1 treble nm="Soprano"
V:2 treble nm="Alto"
V:3 treble-8 nm="Tenor"
V:4 bass nm="Bass"
V:1
 (B3 A Bc | d3 c) d e | (f2 gf) e d | d2 c2 z2 | (cB AB cd | ed cd ef | g2) e2 c2 | (B4 A2) | %8
w: Mno- * * *|* * ga- ja,|mno- * * ga- ja|le- ta,|mno- * * * * *||* ga- ja|le- *|
 B4 z2 | (c3 A dc | B3 G cB | A2 B2 c2 | d2) =e2 (fg) | (f4 =e2) | f4 z2 | z2 z [df] [ce] [Bd] | %16
w: ta,|mno- * * *|||* ga- ja _|le- *|ta,|mno- ga- ja|
 [Bd]2 [Ac]2 z2 | z2 z [df] [ce] [Bd] | ([eg]6 | [df]6 | e2) d2 c2 | (B6- | B2 AG A2) | B6 |] %24
w: le- ta,|mno- ga- ja,|mno-||* ga- ja|le-||ta.|
V:2
 (D3 C DE | F4) F F | F4 F F | F2 F2 z2 | F2 F2 z2 | A2 [FA]2 z2 | B2 G2 G2 | (F4 E2) | D4 z2 | %9
w: Mno- * * *|* ga- ja,|mno- ga- ja|le- ta,|le- ta,|le- ta,|mno- ga- ja|le- *|ta,|
 (A3 F BA | G3 =E AG | F2 G2 A2 | B2) B2 (AB) | (A4 G2) | A4 z2 | z2 z B A B | F2 F2 z2 | %17
w: mno- * * *|||* ga- ja _|le- *|ta,|mno- ga- ja|le- ta,|
 z2 z B A B | (B6- | B6 | G2) G2 G2 | (F6 | E6) | D6 |] %24
w: mno- ga- ja,|mno-||* ga- ja|le-||ta.|
V:3
 (F6 | B3 A) B c | (d2 ed) c B | B2 A2 z2 | (AG FG AB | cB AB cd | e2) c2 e2 | (d4 c2) | B4 z2 | %9
w: Mno-|* * ga- ja,|mno- * * ga- ja|le- ta,|mno- * * * * *||* ga- ja|le- *|ta,|
 A2 A2 z2 | [=EG]2 [EG]2 z2 | (c2 B2 A2 | d2) c2 (cd) | c6 | c3 [ce] [Bd] c | [Bd]2 [Bd]2 z2 | %16
w: le- ta,|le- ta,|mno- * *|* ga- ja _|le-|ta, mno- ga- ja|le- ta,|
 z2 z [ce] [Bd] [Ac] | [Bd]2 [Bd]2 z2 | (e6 | d6 | c2) =B2 c2 | (d6 | c6) | F6 |] %24
w: mno- ga- ja|le- ta,|mno-||* ga- ja|le-||ta.|
V:4
 (B,,6- | B,,2 D,F,) D, C, | [B,,B,]4 [A,,A,] [B,,B,] | [F,,F,]2 [F,,F,] F,, A,, C, | F,2 F,,2 z2 | %5
w: Mno-|* * * ga- ja,|mno- ga- ja|le- ta, mno- ga- ja-|le- ta,|
 C,2 C,2 z2 | E,2 E,2 E,2 | F,6 | B,,3 F, D, B,, | F,2 [F,,F,]2 z2 | C,2 C,2 z2 | (F,6 | %12
w: le- ta,|mno- ga- ja|le-|ta, mno- ga- ja|le- ta,|le- ta,|mno-|
 B,,2) C,2 (F,B,,) | C,6 | F,3 F, G, A, | B,2 B,,2 z2 | z2 z F, G, A, | B,2 B,,2 z2 | %18
w: * ga- ja _|le-|ta, mno- ga- ja|le- ta,|mno- ga- ja|le- ta,|
 (E,D, E,F, G,A, | B,A, B,F,) D, B,, | C,2 D,2 E,2 | (F,6 | F,,6) | B,,6 |] %24
w: mno- * * * * *|* * * * ga- ja,|mno- ga- ja|le-||ta.|

